build/img/img-bullet-4.svg

<?xml version="1.0" encoding="UTF-8"?>
<svg width="68px" height="61px" viewBox="0 0 68 61" version="1.1" xmlns="http://www.w3.org/2000/svg" xmlns:xlink="http://www.w3.org/1999/xlink">
    <!-- Generator: Sketch 47.1 (45422) - http://www.bohemiancoding.com/sketch -->
    <title>bullet-4</title>
    <desc>Created with Sketch.</desc>
    <defs></defs>
    <g id="Symbols" stroke="none" stroke-width="1" fill="none" fill-rule="evenodd">
        <g id="bullet-4" fill-rule="nonzero" fill="#FFFFFF">
            <path d="M0.0024668325,0.725541431 L0.0024668325,60.4272363 L67.865029,60.4272363 L67.865029,0.725541431 L0.0024668325,0.725541431 Z M66.3109245,2.28027307 L66.3109245,8.70649718 L1.55657131,8.70649718 L1.55657131,2.28027307 L66.3109245,2.28027307 Z M1.55657131,58.8725047 L1.55657131,10.2612288 L66.3109245,10.2612288 L66.3109245,58.8725047 L1.55657131,58.8725047 Z" id="Shape"></path>
            <rect id="Rectangle-path" x="51.2879146" y="4.76784369" width="1.55410448" height="1.55473164"></rect>
            <rect id="Rectangle-path" x="59.1620439" y="4.76784369" width="1.55410448" height="1.55473164"></rect>
            <rect id="Rectangle-path" x="55.2249793" y="4.76784369" width="1.55410448" height="1.55473164"></rect>
            <rect id="Rectangle-path" x="6.52970564" y="4.76784369" width="39.8886816" height="1.55473164"></rect>
            <path d="M33.8819444,14.3035311 L12.5389096,30.058145 L9.84512852,30.058145 L9.84512852,31.6128766 L14.300228,31.6128766 L14.300228,54.9338512 L53.4636609,54.9338512 L53.4636609,31.6128766 L57.9187604,31.6128766 L57.9187604,30.058145 L55.2249793,30.058145 L33.8819444,14.3035311 Z M33.8819444,16.169209 L52.6348051,30.058145 L15.1290837,30.058145 L33.8819444,16.169209 Z M21.1382877,53.3791196 L21.1382877,40.215725 L30.0484867,40.215725 L30.0484867,53.3791196 L21.1382877,53.3791196 Z M51.9095564,53.3791196 L31.4989842,53.3791196 L31.4989842,38.6609934 L19.5841833,38.6609934 L19.5841833,53.3791196 L15.8543325,53.3791196 L15.8543325,31.6128766 L51.9095564,31.6128766 L51.9095564,53.3791196 Z" id="Shape"></path>
            <path d="M47.8688847,35.136935 L35.9540837,35.136935 L35.9540837,46.8492467 L47.8688847,46.8492467 L47.8688847,35.136935 Z M46.3147803,40.215725 L42.6885365,40.215725 L42.6885365,36.6916667 L46.3147803,36.6916667 L46.3147803,40.215725 Z M41.134432,36.6916667 L41.134432,40.215725 L37.5081882,40.215725 L37.5081882,36.6916667 L41.134432,36.6916667 Z M37.5081882,41.7704567 L41.134432,41.7704567 L41.134432,45.2945151 L37.5081882,45.2945151 L37.5081882,41.7704567 Z M42.6885365,45.2945151 L42.6885365,41.7704567 L46.3147803,41.7704567 L46.3147803,45.2945151 L42.6885365,45.2945151 Z" id="Shape"></path>
        </g>
    </g>
</svg>

<svg width="68" height="61" viewBox="0 0 68 61" xmlns="http://www.w3.org/2000/svg"><title>bullet-4</title><g id="Symbols" fill="none" fill-rule="evenodd"><g id="bullet-4" fill-rule="nonzero" fill="#FFF"><path d="M.002.726v59.701h67.863V.726H.002zM66.311 2.28v6.426H1.557V2.28H66.31zM1.557 58.873V10.26H66.31v48.612H1.557z" id="Shape"/><path id="Rectangle-path" d="M51.288 4.768h1.554v1.555h-1.554zm7.874 0h1.554v1.555h-1.554zm-3.937 0h1.554v1.555h-1.554zm-48.695 0h39.889v1.555H6.53z"/><path d="M33.882 14.304L12.539 30.058H9.845v1.555H14.3v23.32h39.164v-23.32h4.455v-1.555h-2.694L33.882 14.304zm0 1.865l18.753 13.89H15.129l18.753-13.89zM21.138 53.38V40.216h8.91v13.163h-8.91zm30.772 0H31.499V38.661H19.584v14.718h-3.73V31.613H51.91v21.766z" id="Shape"/><path d="M47.869 35.137H35.954v11.712H47.87V35.137zm-1.554 5.079h-3.626v-3.524h3.626v3.524zm-5.18-3.524v3.524h-3.627v-3.524h3.626zm-3.627 5.078h3.626v3.525h-3.626V41.77zm5.18 3.525V41.77h3.627v3.525h-3.626z" id="Shape"/></g></g></svg>
